X: 1
T: den Gamle Seksten frm Vr\ogum
O: Danmark
R: jig
Z: 2017 John Chambers <jc:trillian.mit.edu>
M: 6/8
L: 1/8
K: G
|:\
B2A B2A | G2F G2B | ABc DFA | cBA G2z |\
B2A B2A | G2F G2B | ABc DEF | G3 G2z :|
K: D
|:\
A2A A2d | f2f f2f | e2e e2g | b2a a2z |\
A2A A2d | f2f f2e | e2g f2e | d3 d2z :|
